Newaita-dark/apps/16/scribus.svg

<svg height="16" viewBox="0 0 16 16" width="16" xmlns="http://www.w3.org/2000/svg" xmlns:xlink="http://www.w3.org/1999/xlink"><linearGradient id="a"><stop offset="0" stop-opacity=".313726"/><stop offset=".222222" stop-opacity=".27451"/><stop offset="1" stop-opacity="0"/></linearGradient><radialGradient id="b" cx="450.908936" cy="189.579361" gradientTransform="matrix(.00000009 -.0390662 -.0703192 -.00000005 22.261576 31.797665)" gradientUnits="userSpaceOnUse" r="21.166656" xlink:href="#a"/><radialGradient id="c" cx="450.908936" cy="189.579361" gradientTransform="matrix(-.00000009 .0390662 .0703192 .00000005 -6.385059 -3.763741)" gradientUnits="userSpaceOnUse" r="21.166656" xlink:href="#a"/><radialGradient id="d" cx="450.908936" cy="189.579361" gradientTransform="matrix(-.00000009 -.0390662 .0703192 -.00000005 -6.385059 31.797665)" gradientUnits="userSpaceOnUse" r="21.166656" xlink:href="#a"/><radialGradient id="e" cx="450.908936" cy="189.579361" gradientTransform="matrix(.00000009 .0390662 -.0703192 .00000005 22.261575 -3.763741)" gradientUnits="userSpaceOnUse" r="21.166656" xlink:href="#a"/><linearGradient id="f" gradientTransform="matrix(.00668003 0 0 .031253 6.232693 6.719392)" gradientUnits="userSpaceOnUse" x1="255.323059" x2="255.323044" y1="233.5" y2="254.666656"><stop offset="0" stop-opacity=".27451"/><stop offset="1" stop-opacity="0"/></linearGradient><linearGradient id="g" gradientUnits="userSpaceOnUse" x1="7.938262" x2="7.938262" y1="1.44805249998" y2="14.0169675"><stop offset="0" stop-color="#64b5f6"/><stop offset="1" stop-color="#42a5f5"/></linearGradient><linearGradient id="h" gradientUnits="userSpaceOnUse" x1="7.938262" x2="7.938262" y1="14.0169675" y2="1.44805300003"><stop offset="0" stop-color="#e0e0e0"/><stop offset="1" stop-color="#eee"/></linearGradient><path d="m9.097656 14.015625h1.320313v-.660156h-1.320313zm0 0" fill="url(#b)"/><path d="m6.78125 14.015625h-1.324219v.664063h1.324219zm0 0" fill="url(#c)"/><path d="m6.78125 14.015625h-1.324219v-.660156h1.324219zm0 0" fill="url(#d)"/><path d="m9.097656 14.015625h1.320313v.664063h-1.320313zm0 0" fill="url(#e)"/><path d="m6.78125 13.851562h2.316406v.828126h-2.316406zm0 0" fill="url(#f)"/><path d="m7.9375 1.449219c3.472656 0 6.285156 2.8125 6.285156 6.285156 0 3.46875-2.8125 6.28125-6.285156 6.28125-3.46875 0-6.285156-2.8125-6.285156-6.28125 0-3.472656 2.816406-6.285156 6.285156-6.285156zm0 0" fill="url(#g)"/><path d="m7.9375 14.015625c-3.480469 0-6.285156-2.800781-6.285156-6.28125 0-.023437 0-.042969 0-.0625.035156 3.453125 2.824218 6.222656 6.285156 6.222656s6.253906-2.769531 6.285156-6.222656v.0625c0 3.480469-2.804687 6.28125-6.285156 6.28125zm0 0" fill-opacity=".196078"/><path d="m7.9375 1.449219c-3.480469 0-6.285156 2.800781-6.285156 6.285156 0 .023437 0 .050781.003906.078125.042969-3.441406 2.828125-6.199219 6.28125-6.199219s6.238281 2.757813 6.285156 6.199219c0-.027344 0-.054688 0-.078125 0-3.484375-2.804687-6.285156-6.285156-6.285156zm0 0" fill="#fff" fill-opacity=".392157"/><path d="m253.975747-168.629428c111.114389 0 201.105795 89.991406 201.105795 201.105795 0 110.989401-89.991406 200.980807-201.105795 200.980807-110.989402 0-201.105796-89.991406-201.105796-200.980807 0-111.114389 90.116394-201.105795 201.105796-201.105795zm0 0" fill="none" stroke="#333" stroke-linecap="round" stroke-width="3" transform="matrix(.031253 0 0 .031253 0 6.719392)"/><path d="m8.933594 3.246094c-.023438 0-.046875.003906-.066406.007812 0 0-.085938.035156-.199219.109375-.117188.074219-.277344.199219-.464844.394531-.378906.390626-.875 1.074219-1.378906 2.246094-1.003907 2.347656-1.714844 5.65625-1.714844 5.65625-.027344.117188.0625.230469.183594.230469h.328125c.070312 0 .128906-.039063.164062-.09375 0 0 .304688-.527344.78125-1.117187.476563-.585938 1.128906-1.222657 1.761719-1.4375.96875-.332032 1.59375-.328126 1.59375-.328126.203125 0 .261719-.277343.078125-.359374 0 0-.011719-.003907-.0625-.050782-.046875-.046875-.117188-.132812-.175781-.277344-.117188-.292968-.195313-.835937.046875-1.800781.296875-1.179687 1.214844-1.847656 1.214844-1.847656.074218-.054687.097656-.148437.0625-.230469-.148438-.320312-.292969-.617187-.617188-.8125-.320312-.199218-.777344-.285156-1.535156-.289062zm0 0" fill="url(#h)"/><path d="m11.058594 4.542969c-.007813.011719-.019532.023437-.035156.035156 0 0-.917969.667969-1.214844 1.847656-.132813.527344-.167969.933594-.15625 1.234375.011718-.265625.058594-.585937.15625-.980468.296875-1.183594 1.214844-1.847657 1.214844-1.847657.074218-.054687.097656-.152343.0625-.230469-.007813-.019531-.015626-.039062-.027344-.058593zm-.996094 4.308593c-.03125.035157-.078125.0625-.140625.0625 0 0-.625-.003906-1.59375.328126-.632813.214843-1.285156.851562-1.761719 1.4375-.476562.589843-.78125 1.117187-.78125 1.117187-.035156.054687-.09375.09375-.164062.09375h-.328125c-.066407 0-.125-.035156-.160157-.089844-.015624.070313-.023437.113281-.023437.113281-.027344.117188.0625.226563.183594.226563h.328125c.070312 0 .128906-.035156.164062-.09375 0 0 .304688-.527344.78125-1.113281.476563-.585938 1.128906-1.222656 1.761719-1.4375.96875-.332032 1.59375-.332032 1.59375-.332032.175781 0 .242187-.203124.140625-.3125zm0 0" fill-opacity=".235294"/><path d="m8.933594 3.246094c-.023438 0-.046875.003906-.066406.007812 0 0-.085938.035156-.199219.109375-.117188.074219-.277344.199219-.464844.394531-.378906.390626-.875 1.074219-1.378906 2.246094-1.003907 2.347656-1.714844 5.65625-1.714844 5.65625-.011719.046875-.003906.085938.015625.125.097656-.457031.773438-3.433594 1.699219-5.59375.503906-1.171875 1-1.855468 1.378906-2.246094.1875-.195312.347656-.320312.464844-.394531.113281-.074219.199219-.109375.199219-.109375.019531-.003906.042968-.007812.066406-.007812.757812.003906 1.214844.089844 1.535156.289062.316406.195313.464844.480469.609375.796875.027344-.054687.035156-.117187.007813-.171875-.148438-.320312-.292969-.617187-.617188-.8125-.320312-.199218-.777344-.285156-1.535156-.289062zm.71875 4.386718c-.011719.363282.042968.613282.109375.78125.058593.144532.128906.230469.175781.277344.050781.046875.0625.050782.0625.050782.039062.015624.066406.042968.085938.074218.046874-.085937.027343-.210937-.085938-.261718 0 0-.011719-.003907-.0625-.050782-.046875-.046875-.117188-.132812-.175781-.277344-.054688-.136718-.101563-.328124-.109375-.59375zm0 0" fill="#fff"/><path d="m285.847703-111.134919c-.749928 0-1.499857.124988-2.124797.249977 0 0-2.749738 1.124892-6.374391 3.499665-3.749642 2.374774-8.874153 6.374392-14.87358 12.623795-12.123842 12.498806-27.997326 34.371717-44.120787 71.868137-32.121932 75.117826-54.86976 180.982717-54.86976 180.982717-.874916 3.749642 1.999809 7.374296 5.874439 7.374296h10.498997c2.249786 0 4.124607-1.249881 5.249499-2.999714 0 0 9.749069-16.873389 24.997613-35.746586 15.248544-18.74821 36.121551-39.121264 56.369617-45.995608 30.99704-10.623985 50.99513-10.498997 50.99513-10.498997 6.499379 0 8.3742-8.874153 2.499761-11.498902 0 0-.374964-.124988-1.999809-1.624845-1.499856-1.499857-3.749642-4.249594-5.624462-8.874153-3.749642-9.374105-6.249404-26.747445 1.499856-57.619497 9.499093-37.746396 38.871288-59.119355 38.871288-59.119355 2.374773-1.749833 3.124702-4.749546 1.999809-7.374296-4.749546-10.249021-9.374105-19.748114-19.748114-25.997517-10.249021-6.374391-24.872625-9.124129-49.120309-9.249117zm0 0" fill="none" stroke="#212121" stroke-linecap="round" stroke-linejoin="round" stroke-width="3" transform="matrix(.031253 0 0 .031253 0 6.719392)"/></svg>

<?xml version="1.0" encoding="UTF-8"?>
<svg xmlns="http://www.w3.org/2000/svg" xmlns:xlink="http://www.w3.org/1999/xlink" width="16px" height="16px" viewBox="0 0 16 16" version="1.1">
<defs>
<radialGradient id="radial0" gradientUnits="userSpaceOnUse" cx="450.908936" cy="189.579361" fx="450.908936" fy="189.579361" r="21.166656" gradientTransform="matrix(0.0000000870852,-0.0390662,-0.0703192,-0.0000000507693,22.261576,31.797665)">
<stop offset="0" style="stop-color:rgb(0%,0%,0%);stop-opacity:0.313726;"/>
<stop offset="0.222222" style="stop-color:rgb(0%,0%,0%);stop-opacity:0.27451;"/>
<stop offset="1" style="stop-color:rgb(0%,0%,0%);stop-opacity:0;"/>
</radialGradient>
<radialGradient id="radial1" gradientUnits="userSpaceOnUse" cx="450.908936" cy="189.579361" fx="450.908936" fy="189.579361" r="21.166656" gradientTransform="matrix(-0.0000000870852,0.0390662,0.0703192,0.0000000507693,-6.385059,-3.763741)">
<stop offset="0" style="stop-color:rgb(0%,0%,0%);stop-opacity:0.313726;"/>
<stop offset="0.222222" style="stop-color:rgb(0%,0%,0%);stop-opacity:0.27451;"/>
<stop offset="1" style="stop-color:rgb(0%,0%,0%);stop-opacity:0;"/>
</radialGradient>
<radialGradient id="radial2" gradientUnits="userSpaceOnUse" cx="450.908936" cy="189.579361" fx="450.908936" fy="189.579361" r="21.166656" gradientTransform="matrix(-0.0000000870852,-0.0390662,0.0703192,-0.0000000507693,-6.385059,31.797665)">
<stop offset="0" style="stop-color:rgb(0%,0%,0%);stop-opacity:0.313726;"/>
<stop offset="0.222222" style="stop-color:rgb(0%,0%,0%);stop-opacity:0.27451;"/>
<stop offset="1" style="stop-color:rgb(0%,0%,0%);stop-opacity:0;"/>
</radialGradient>
<radialGradient id="radial3" gradientUnits="userSpaceOnUse" cx="450.908936" cy="189.579361" fx="450.908936" fy="189.579361" r="21.166656" gradientTransform="matrix(0.0000000870852,0.0390662,-0.0703192,0.0000000507693,22.261575,-3.763741)">
<stop offset="0" style="stop-color:rgb(0%,0%,0%);stop-opacity:0.313726;"/>
<stop offset="0.222222" style="stop-color:rgb(0%,0%,0%);stop-opacity:0.27451;"/>
<stop offset="1" style="stop-color:rgb(0%,0%,0%);stop-opacity:0;"/>
</radialGradient>
<linearGradient id="linear0" gradientUnits="userSpaceOnUse" x1="255.323059" y1="233.5" x2="255.323044" y2="254.666656" gradientTransform="matrix(0.00668003,0,0,0.031253,6.232693,6.719392)">
<stop offset="0" style="stop-color:rgb(0%,0%,0%);stop-opacity:0.27451;"/>
<stop offset="1" style="stop-color:rgb(0%,0%,0%);stop-opacity:0;"/>
</linearGradient>
<linearGradient id="linear1" gradientUnits="userSpaceOnUse" x1="254" y1="-168.666672" x2="254" y2="233.5" gradientTransform="matrix(0.031253,0,0,0.031253,0.0000000820391,6.719392)">
<stop offset="0" style="stop-color:rgb(39.215687%,70.980394%,96.470588%);stop-opacity:1;"/>
<stop offset="1" style="stop-color:rgb(25.882354%,64.705884%,96.078432%);stop-opacity:1;"/>
</linearGradient>
<linearGradient id="linear2" gradientUnits="userSpaceOnUse" x1="254" y1="233.5" x2="254" y2="-168.666656" gradientTransform="matrix(0.031253,0,0,0.031253,0,6.719392)">
<stop offset="0" style="stop-color:rgb(87.843138%,87.843138%,87.843138%);stop-opacity:1;"/>
<stop offset="1" style="stop-color:rgb(93.333334%,93.333334%,93.333334%);stop-opacity:1;"/>
</linearGradient>
</defs>
<g id="surface1">
<path style=" stroke:none;fill-rule:nonzero;fill:url(#radial0);" d="M 9.097656 14.015625 L 10.417969 14.015625 L 10.417969 13.355469 L 9.097656 13.355469 Z M 9.097656 14.015625 "/>
<path style=" stroke:none;fill-rule:nonzero;fill:url(#radial1);" d="M 6.78125 14.015625 L 5.457031 14.015625 L 5.457031 14.679688 L 6.78125 14.679688 Z M 6.78125 14.015625 "/>
<path style=" stroke:none;fill-rule:nonzero;fill:url(#radial2);" d="M 6.78125 14.015625 L 5.457031 14.015625 L 5.457031 13.355469 L 6.78125 13.355469 Z M 6.78125 14.015625 "/>
<path style=" stroke:none;fill-rule:nonzero;fill:url(#radial3);" d="M 9.097656 14.015625 L 10.417969 14.015625 L 10.417969 14.679688 L 9.097656 14.679688 Z M 9.097656 14.015625 "/>
<path style=" stroke:none;fill-rule:nonzero;fill:url(#linear0);" d="M 6.78125 13.851562 L 9.097656 13.851562 L 9.097656 14.679688 L 6.78125 14.679688 Z M 6.78125 13.851562 "/>
<path style=" stroke:none;fill-rule:nonzero;fill:url(#linear1);" d="M 7.9375 1.449219 C 11.410156 1.449219 14.222656 4.261719 14.222656 7.734375 C 14.222656 11.203125 11.410156 14.015625 7.9375 14.015625 C 4.46875 14.015625 1.652344 11.203125 1.652344 7.734375 C 1.652344 4.261719 4.46875 1.449219 7.9375 1.449219 Z M 7.9375 1.449219 "/>
<path style=" stroke:none;fill-rule:nonzero;fill:rgb(0%,0%,0%);fill-opacity:0.196078;" d="M 7.9375 14.015625 C 4.457031 14.015625 1.652344 11.214844 1.652344 7.734375 C 1.652344 7.710938 1.652344 7.691406 1.652344 7.671875 C 1.6875 11.125 4.476562 13.894531 7.9375 13.894531 C 11.398438 13.894531 14.191406 11.125 14.222656 7.671875 C 14.222656 7.691406 14.222656 7.710938 14.222656 7.734375 C 14.222656 11.214844 11.417969 14.015625 7.9375 14.015625 Z M 7.9375 14.015625 "/>
<path style=" stroke:none;fill-rule:nonzero;fill:rgb(100%,100%,100%);fill-opacity:0.392157;" d="M 7.9375 1.449219 C 4.457031 1.449219 1.652344 4.25 1.652344 7.734375 C 1.652344 7.757812 1.652344 7.785156 1.65625 7.8125 C 1.699219 4.371094 4.484375 1.613281 7.9375 1.613281 C 11.390625 1.613281 14.175781 4.371094 14.222656 7.8125 C 14.222656 7.785156 14.222656 7.757812 14.222656 7.734375 C 14.222656 4.25 11.417969 1.449219 7.9375 1.449219 Z M 7.9375 1.449219 "/>
<path style="fill:none;stroke-width:3;stroke-linecap:round;stroke-linejoin:miter;stroke:rgb(20%,20%,20%);stroke-opacity:1;stroke-miterlimit:4;" d="M 253.975747 -168.629428 C 365.090136 -168.629428 455.081542 -78.638022 455.081542 32.476367 C 455.081542 143.465768 365.090136 233.457174 253.975747 233.457174 C 142.986345 233.457174 52.869951 143.465768 52.869951 32.476367 C 52.869951 -78.638022 142.986345 -168.629428 253.975747 -168.629428 Z M 253.975747 -168.629428 " transform="matrix(0.031253,0,0,0.031253,0,6.719392)"/>
<path style=" stroke:none;fill-rule:nonzero;fill:url(#linear2);" d="M 8.933594 3.246094 C 8.910156 3.246094 8.886719 3.25 8.867188 3.253906 C 8.867188 3.253906 8.78125 3.289062 8.667969 3.363281 C 8.550781 3.4375 8.390625 3.5625 8.203125 3.757812 C 7.824219 4.148438 7.328125 4.832031 6.824219 6.003906 C 5.820312 8.351562 5.109375 11.660156 5.109375 11.660156 C 5.082031 11.777344 5.171875 11.890625 5.292969 11.890625 L 5.621094 11.890625 C 5.691406 11.890625 5.75 11.851562 5.785156 11.796875 C 5.785156 11.796875 6.089844 11.269531 6.566406 10.679688 C 7.042969 10.09375 7.695312 9.457031 8.328125 9.242188 C 9.296875 8.910156 9.921875 8.914062 9.921875 8.914062 C 10.125 8.914062 10.183594 8.636719 10 8.554688 C 10 8.554688 9.988281 8.550781 9.9375 8.503906 C 9.890625 8.457031 9.820312 8.371094 9.761719 8.226562 C 9.644531 7.933594 9.566406 7.390625 9.808594 6.425781 C 10.105469 5.246094 11.023438 4.578125 11.023438 4.578125 C 11.097656 4.523438 11.121094 4.429688 11.085938 4.347656 C 10.9375 4.027344 10.792969 3.730469 10.46875 3.535156 C 10.148438 3.335938 9.691406 3.25 8.933594 3.246094 Z M 8.933594 3.246094 "/>
<path style=" stroke:none;fill-rule:nonzero;fill:rgb(0%,0%,0%);fill-opacity:0.235294;" d="M 11.058594 4.542969 C 11.050781 4.554688 11.039062 4.566406 11.023438 4.578125 C 11.023438 4.578125 10.105469 5.246094 9.808594 6.425781 C 9.675781 6.953125 9.640625 7.359375 9.652344 7.660156 C 9.664062 7.394531 9.710938 7.074219 9.808594 6.679688 C 10.105469 5.496094 11.023438 4.832031 11.023438 4.832031 C 11.097656 4.777344 11.121094 4.679688 11.085938 4.601562 C 11.078125 4.582031 11.070312 4.5625 11.058594 4.542969 Z M 10.0625 8.851562 C 10.03125 8.886719 9.984375 8.914062 9.921875 8.914062 C 9.921875 8.914062 9.296875 8.910156 8.328125 9.242188 C 7.695312 9.457031 7.042969 10.09375 6.566406 10.679688 C 6.089844 11.269531 5.785156 11.796875 5.785156 11.796875 C 5.75 11.851562 5.691406 11.890625 5.621094 11.890625 L 5.292969 11.890625 C 5.226562 11.890625 5.167969 11.855469 5.132812 11.800781 C 5.117188 11.871094 5.109375 11.914062 5.109375 11.914062 C 5.082031 12.03125 5.171875 12.140625 5.292969 12.140625 L 5.621094 12.140625 C 5.691406 12.140625 5.75 12.105469 5.785156 12.046875 C 5.785156 12.046875 6.089844 11.519531 6.566406 10.933594 C 7.042969 10.347656 7.695312 9.710938 8.328125 9.496094 C 9.296875 9.164062 9.921875 9.164062 9.921875 9.164062 C 10.097656 9.164062 10.164062 8.960938 10.0625 8.851562 Z M 10.0625 8.851562 "/>
<path style=" stroke:none;fill-rule:nonzero;fill:rgb(100%,100%,100%);fill-opacity:1;" d="M 8.933594 3.246094 C 8.910156 3.246094 8.886719 3.25 8.867188 3.253906 C 8.867188 3.253906 8.78125 3.289062 8.667969 3.363281 C 8.550781 3.4375 8.390625 3.5625 8.203125 3.757812 C 7.824219 4.148438 7.328125 4.832031 6.824219 6.003906 C 5.820312 8.351562 5.109375 11.660156 5.109375 11.660156 C 5.097656 11.707031 5.105469 11.746094 5.125 11.785156 C 5.222656 11.328125 5.898438 8.351562 6.824219 6.191406 C 7.328125 5.019531 7.824219 4.335938 8.203125 3.945312 C 8.390625 3.75 8.550781 3.625 8.667969 3.550781 C 8.78125 3.476562 8.867188 3.441406 8.867188 3.441406 C 8.886719 3.4375 8.910156 3.433594 8.933594 3.433594 C 9.691406 3.4375 10.148438 3.523438 10.46875 3.722656 C 10.785156 3.917969 10.933594 4.203125 11.078125 4.519531 C 11.105469 4.464844 11.113281 4.402344 11.085938 4.347656 C 10.9375 4.027344 10.792969 3.730469 10.46875 3.535156 C 10.148438 3.335938 9.691406 3.25 8.933594 3.246094 Z M 9.652344 7.632812 C 9.640625 7.996094 9.695312 8.246094 9.761719 8.414062 C 9.820312 8.558594 9.890625 8.644531 9.9375 8.691406 C 9.988281 8.738281 10 8.742188 10 8.742188 C 10.039062 8.757812 10.066406 8.785156 10.085938 8.816406 C 10.132812 8.730469 10.113281 8.605469 10 8.554688 C 10 8.554688 9.988281 8.550781 9.9375 8.503906 C 9.890625 8.457031 9.820312 8.371094 9.761719 8.226562 C 9.707031 8.089844 9.660156 7.898438 9.652344 7.632812 Z M 9.652344 7.632812 "/>
<path style="fill:none;stroke-width:3;stroke-linecap:round;stroke-linejoin:round;stroke:rgb(12.941177%,12.941177%,12.941177%);stroke-opacity:1;stroke-miterlimit:4;" d="M 285.847703 -111.134919 C 285.097775 -111.134919 284.347846 -111.009931 283.722906 -110.884942 C 283.722906 -110.884942 280.973168 -109.76005 277.348515 -107.385277 C 273.598873 -105.010503 268.474362 -101.010885 262.474935 -94.761482 C 250.351093 -82.262676 234.477609 -60.389765 218.354148 -22.893345 C 186.232216 52.224481 163.484388 158.089372 163.484388 158.089372 C 162.609472 161.839014 165.484197 165.463668 169.358827 165.463668 L 179.857824 165.463668 C 182.10761 165.463668 183.982431 164.213787 185.107323 162.463954 C 185.107323 162.463954 194.856392 145.590565 210.104936 126.717368 C 225.35348 107.969158 246.226487 87.596104 266.474553 80.72176 C 297.471593 70.097775 317.469683 70.222763 317.469683 70.222763 C 323.969062 70.222763 325.843883 61.34861 319.969444 58.723861 C 319.969444 58.723861 319.59448 58.598873 317.969635 57.099016 C 316.469779 55.599159 314.219993 52.849422 312.345173 48.224863 C 308.595531 38.850758 306.095769 21.477418 313.845029 -9.394634 C 323.344122 -47.14103 352.716317 -68.513989 352.716317 -68.513989 C 355.09109 -70.263822 355.841019 -73.263535 354.716126 -75.888285 C 349.96658 -86.137306 345.342021 -95.636399 334.968012 -101.885802 C 324.718991 -108.260193 310.095387 -111.009931 285.847703 -111.134919 Z M 285.847703 -111.134919 " transform="matrix(0.031253,0,0,0.031253,0,6.719392)"/>
</g>
</svg>
